X:376
T: GRUEN IST DIE FARBE DER HOFFNUNG
N: F0666
O: Europa, Mitteleuropa, Deutschland
R: Staende -, Jaeger - Lied
M: 6/8
L: 1/16
K: G
d2 | d4B2B3AB2 | c6A4
A2 | B4G2G3AB2 | A8z2
D2 | G4A2B3AG2 | A6D4
A2 | B4A2G3AB2 | A6D4
d2 | d6B6 | c4A2A4
c2 | B4G2A2B2A2 | G8z4 | z4
B2A2B2A2 | G6z4

